X:4777
L:1/8
M:2/2
K:D
 AD D/D/D (AG)EF | (GE) cE (dE) cE | AD D/D/D (AG)EF | GE=cE (ED) D2 :| AddB c2 (ec) | AcGc AcGc | 
 AddB c2 (ec) | AcGA (ED) D2 | AddB c2 (ec) | AcGc AcGc | dBcA BGAF | GE=cE (ED) D2 ||

